static/images/logo/logo.svg

<svg height="31" viewBox="0 0 148 31" width="148" xmlns="http://www.w3.org/2000/svg"><path d="m8.198 25.548c.64400322 0 1.30199664-.1469985 1.974-.441.6720034-.2940015 1.3159969-.7209972 1.932-1.281v-2.562h-3.528c-.81200406 0-1.44199776.2379976-1.89.714s-.672 1.0359968-.672 1.68c0 .5040025.2099979.9449981.63 1.323s.93799692.567 1.554.567zm1.344-16.506c2.5480127 0 4.6409918.72799272 6.279 2.184 1.6380082 1.4560073 2.457 3.3319885 2.457 5.628v13.146h-3.024l-1.344-1.68c-.7000035.6160031-1.5609949 1.1339979-2.583 1.554s-2.06499468.63-3.129.63c-2.5200126 0-4.38899391-.6229938-5.607-1.869s-1.827-2.8769899-1.827-4.893c0-2.1280106.72099279-3.7379945 2.163-4.83s3.32498838-1.638 5.649-1.638h3.486c-.0560003-.8680043-.3569973-1.5539975-.903-2.058s-1.26699552-.756-2.163-.756c-.86800434 0-1.83399468.1259987-2.898.378s-1.98799608.5599982-2.772.924l-1.638-4.872c.86800434-.5040025 2.11399188-.93799818 3.738-1.302s2.9959944-.546 4.116-.546zm22.188 16.254c.5320027 0 1.1199968-.1119989 1.764-.336s1.2319973-.5039983 1.764-.84v-8.652c-.5320027-.4200021-1.1339966-.7629987-1.806-1.029s-1.3159969-.399-1.932-.399c-1.6520083 0-2.8069967.6159938-3.465 1.848s-.987 2.4919936-.987 3.78c0 1.4840074.3359966 2.7929943 1.008 3.927s1.8899912 1.701 3.654 1.701zm9.744-24.948v29.652h-3.192l-1.47-2.016c-.8120041.7000035-1.8129941 1.2949976-3.003 1.785-1.190006.4900025-2.4289936.735-3.717.735-3.0800154 0-5.417992-1.0289897-7.014-3.087s-2.394-4.6129847-2.394-7.665c0-3.0800154.8329917-5.6629896 2.499-7.749 1.6660083-2.08601043 4.0809842-3.129 7.245-3.129.7000035 0 1.4839957.11199888 2.352.336s1.6939961.5459979 2.478.966v-9.366zm9.336 29.652-7.812-19.614 6.258-.756 4.494 12.054 4.284-12.054h6.342l-8.022 20.37zm21.558-4.452c.6440032 0 1.3019966-.1469985 1.974-.441s1.3159969-.7209972 1.932-1.281v-2.562h-3.528c-.8120041 0-1.4419978.2379976-1.89.714s-.672 1.0359968-.672 1.68c0 .5040025.2099979.9449981.63 1.323s.9379969.567 1.554.567zm1.344-16.506c2.5480127 0 4.6409918.72799272 6.279 2.184 1.6380082 1.4560073 2.457 3.3319885 2.457 5.628v13.146h-3.024l-1.344-1.68c-.7000035.6160031-1.5609949 1.1339979-2.583 1.554s-2.0649947.63-3.129.63c-2.5200126 0-4.3889939-.6229938-5.607-1.869s-1.827-2.8769899-1.827-4.893c0-2.1280106.7209928-3.7379945 2.163-4.83s3.3249884-1.638 5.649-1.638h3.486c-.0560003-.8680043-.3569973-1.5539975-.903-2.058s-1.2669955-.756-2.163-.756c-.8680043 0-1.8339947.1259987-2.898.378s-1.9879961.5599982-2.772.924l-1.638-4.872c.8680043-.5040025 2.1139919-.93799818 3.738-1.302s2.9959944-.546 4.116-.546zm24.414-.168c2.800014 0 4.794994.80499195 5.985 2.415 1.190006 1.6100081 1.785 3.6049881 1.785 5.985v12.726h-6.174v-12.474c0-1.1200056-.2869971-1.980997-.861-2.583s-1.364995-.903-2.373-.903c-.6720034 0-1.4209959.1749983-2.247.525-.8260041.3500018-1.5749966.7489978-2.247 1.197v14.238h-6.174v-20.37h3.192l1.638 2.058c.8960045-.7840039 2.043993-1.4489973 3.444-1.995 1.400007-.54600273 2.7439936-.819 4.032-.819zm21.222 5.334c-1.372007 0-2.484996.5249948-3.339 1.575-.854004 1.0500053-1.281 2.4009917-1.281 4.053s.426996 2.974995 1.281 3.969 1.966993 1.491 3.339 1.491c.868004 0 1.651997-.097999 2.352-.294.700004-.196001 1.525995-.5179978 2.478-.966l1.722 4.368c-1.008005.7840039-2.183993 1.3299985-3.528 1.638s-2.449996.462-3.318.462c-3.304017 0-5.91499-.9519905-7.833-2.856s-2.877-4.5079835-2.877-7.812.95899-5.9289903 2.877-7.875 4.528983-2.919 7.833-2.919c.868004 0 1.966993.15399846 3.297.462s2.512995.8539961 3.549 1.638l-1.722 4.368c-.952005-.4480022-1.777996-.7769989-2.478-.987-.700003-.210001-1.483996-.315-2.352-.315zm18.408-5.166c3.192016 0 5.557992 1.0499895 7.098 3.15s2.31 4.5919856 2.31 7.476v2.016h-13.272c.280001 1.1480057.860996 2.0439968 1.743 2.688s2.008993.966 3.381.966c.924005 0 1.784996-.1049989 2.583-.315.798004-.210001 1.658995-.5389978 2.583-.987l1.806 4.368c-1.036005.7840039-2.295993 1.3299985-3.78 1.638s-2.659996.462-3.528.462c-3.444017 0-6.20899-.9309907-8.295-2.793s-3.129-4.4869831-3.129-7.875c0-3.3040165.96599-5.9289903 2.898-7.875s4.465984-2.919 7.602-2.919zm-.168 5.124c-.952005 0-1.763997.3079969-2.436.924s-1.105999 1.4839944-1.302 2.604h7.434c-.196001-1.0640053-.601997-1.9179968-1.218-2.562s-1.441995-.966-2.478-.966z" fill="#1c3ed3" fill-rule="evenodd"/></svg>

<?xml version="1.0" encoding="UTF-8"?>
<svg width="148px" height="31px" viewBox="0 0 148 31" version="1.1" xmlns="http://www.w3.org/2000/svg" xmlns:xlink="http://www.w3.org/1999/xlink">
    <!-- Generator: Sketch 52.5 (67469) - http://www.bohemiancoding.com/sketch -->
    <title>logo</title>
    <desc>Created with Sketch.</desc>
    <g id="Page-1" stroke="none" stroke-width="1" fill="none" fill-rule="evenodd">
        <g id="logo" fill="#1C3ED3">
            <path d="M8.198,25.548 C8.84200322,25.548 9.49999664,25.4010015 10.172,25.107 C10.8440034,24.8129985 11.4879969,24.3860028 12.104,23.826 L12.104,21.264 L8.576,21.264 C7.76399594,21.264 7.13400224,21.5019976 6.686,21.978 C6.23799776,22.4540024 6.014,23.0139968 6.014,23.658 C6.014,24.1620025 6.2239979,24.6029981 6.644,24.981 C7.0640021,25.3590019 7.58199692,25.548 8.198,25.548 Z M9.542,9.042 C12.0900127,9.042 14.1829918,9.76999272 15.821,11.226 C17.4590082,12.6820073 18.278,14.5579885 18.278,16.854 L18.278,30 L15.254,30 L13.91,28.32 C13.2099965,28.9360031 12.3490051,29.4539979 11.327,29.874 C10.3049949,30.2940021 9.26200532,30.504 8.198,30.504 C5.6779874,30.504 3.80900609,29.8810062 2.591,28.635 C1.37299391,27.3889938 0.764,25.7580101 0.764,23.742 C0.764,21.6139894 1.48499279,20.0040055 2.927,18.912 C4.36900721,17.8199945 6.25198838,17.274 8.576,17.274 L12.062,17.274 C12.0059997,16.4059957 11.7050027,15.7200025 11.159,15.216 C10.6129973,14.7119975 9.89200448,14.46 8.996,14.46 C8.12799566,14.46 7.16200532,14.5859987 6.098,14.838 C5.03399468,15.0900013 4.11000392,15.3979982 3.326,15.762 L1.688,10.89 C2.55600434,10.3859975 3.80199188,9.95200182 5.426,9.588 C7.05000812,9.22399818 8.4219944,9.042 9.542,9.042 Z M31.73,25.296 C32.2620027,25.296 32.8499968,25.1840011 33.494,24.96 C34.1380032,24.7359989 34.7259973,24.4560017 35.258,24.12 L35.258,15.468 C34.7259973,15.0479979 34.1240034,14.7050013 33.452,14.439 C32.7799966,14.1729987 32.1360031,14.04 31.52,14.04 C29.8679917,14.04 28.7130033,14.6559938 28.055,15.888 C27.3969967,17.1200062 27.068,18.3799936 27.068,19.668 C27.068,21.1520074 27.4039966,22.4609943 28.076,23.595 C28.7480034,24.7290057 29.9659912,25.296 31.73,25.296 Z M41.474,0.348 L41.474,30 L38.282,30 L36.812,27.984 C35.9999959,28.6840035 34.9990059,29.2789976 33.809,29.769 C32.618994,30.2590025 31.3800064,30.504 30.092,30.504 C27.0119846,30.504 24.674008,29.4750103 23.078,27.417 C21.481992,25.3589897 20.684,22.8040153 20.684,19.752 C20.684,16.6719846 21.5169917,14.0890104 23.183,12.003 C24.8490083,9.91698957 27.2639842,8.874 30.428,8.874 C31.1280035,8.874 31.9119957,8.98599888 32.78,9.21 C33.6480043,9.43400112 34.4739961,9.7559979 35.258,10.176 L35.258,0.81 L41.474,0.348 Z M50.81,30 L42.998,10.386 L49.256,9.63 L53.75,21.684 L58.034,9.63 L64.376,9.63 L56.354,30 L50.81,30 Z M72.368,25.548 C73.0120032,25.548 73.6699966,25.4010015 74.342,25.107 C75.0140034,24.8129985 75.6579969,24.3860028 76.274,23.826 L76.274,21.264 L72.746,21.264 C71.9339959,21.264 71.3040022,21.5019976 70.856,21.978 C70.4079978,22.4540024 70.184,23.0139968 70.184,23.658 C70.184,24.1620025 70.3939979,24.6029981 70.814,24.981 C71.2340021,25.3590019 71.7519969,25.548 72.368,25.548 Z M73.712,9.042 C76.2600127,9.042 78.3529918,9.76999272 79.991,11.226 C81.6290082,12.6820073 82.448,14.5579885 82.448,16.854 L82.448,30 L79.424,30 L78.08,28.32 C77.3799965,28.9360031 76.5190051,29.4539979 75.497,29.874 C74.4749949,30.2940021 73.4320053,30.504 72.368,30.504 C69.8479874,30.504 67.9790061,29.8810062 66.761,28.635 C65.5429939,27.3889938 64.934,25.7580101 64.934,23.742 C64.934,21.6139894 65.6549928,20.0040055 67.097,18.912 C68.5390072,17.8199945 70.4219884,17.274 72.746,17.274 L76.232,17.274 C76.1759997,16.4059957 75.8750027,15.7200025 75.329,15.216 C74.7829973,14.7119975 74.0620045,14.46 73.166,14.46 C72.2979957,14.46 71.3320053,14.5859987 70.268,14.838 C69.2039947,15.0900013 68.2800039,15.3979982 67.496,15.762 L65.858,10.89 C66.7260043,10.3859975 67.9719919,9.95200182 69.596,9.588 C71.2200081,9.22399818 72.5919944,9.042 73.712,9.042 Z M98.126,8.874 C100.926014,8.874 102.920994,9.67899195 104.111,11.289 C105.301006,12.8990081 105.896,14.8939881 105.896,17.274 L105.896,30 L99.722,30 L99.722,17.526 C99.722,16.4059944 99.4350029,15.545003 98.861,14.943 C98.2869971,14.340997 97.496005,14.04 96.488,14.04 C95.8159966,14.04 95.0670041,14.2149983 94.241,14.565 C93.4149959,14.9150018 92.6660034,15.3139978 91.994,15.762 L91.994,30 L85.82,30 L85.82,9.63 L89.012,9.63 L90.65,11.688 C91.5460045,10.9039961 92.693993,10.2390027 94.094,9.693 C95.494007,9.14699727 96.8379936,8.874 98.126,8.874 Z M119.348,14.208 C117.975993,14.208 116.863004,14.7329948 116.009,15.783 C115.154996,16.8330053 114.728,18.1839917 114.728,19.836 C114.728,21.4880083 115.154996,22.810995 116.009,23.805 C116.863004,24.799005 117.975993,25.296 119.348,25.296 C120.216004,25.296 120.999997,25.198001 121.7,25.002 C122.400004,24.805999 123.225995,24.4840022 124.178,24.036 L125.9,28.404 C124.891995,29.1880039 123.716007,29.7339985 122.372,30.042 C121.027993,30.3500015 119.922004,30.504 119.054,30.504 C115.749983,30.504 113.13901,29.5520095 111.221,27.648 C109.30299,25.7439905 108.344,23.1400165 108.344,19.836 C108.344,16.5319835 109.30299,13.9070097 111.221,11.961 C113.13901,10.0149903 115.749983,9.042 119.054,9.042 C119.922004,9.042 121.020993,9.19599846 122.351,9.504 C123.681007,9.81200154 124.863995,10.3579961 125.9,11.142 L124.178,15.51 C123.225995,15.0619978 122.400004,14.7330011 121.7,14.523 C120.999997,14.312999 120.216004,14.208 119.348,14.208 Z M137.756,9.042 C140.948016,9.042 143.313992,10.0919895 144.854,12.192 C146.394008,14.2920105 147.164,16.7839856 147.164,19.668 L147.164,21.684 L133.892,21.684 C134.172001,22.8320057 134.752996,23.7279968 135.635,24.372 C136.517004,25.0160032 137.643993,25.338 139.016,25.338 C139.940005,25.338 140.800996,25.2330011 141.599,25.023 C142.397004,24.812999 143.257995,24.4840022 144.182,24.036 L145.988,28.404 C144.951995,29.1880039 143.692007,29.7339985 142.208,30.042 C140.723993,30.3500015 139.548004,30.504 138.68,30.504 C135.235983,30.504 132.47101,29.5730093 130.385,27.711 C128.29899,25.8489907 127.256,23.2240169 127.256,19.836 C127.256,16.5319835 128.22199,13.9070097 130.154,11.961 C132.08601,10.0149903 134.619984,9.042 137.756,9.042 Z M137.588,14.166 C136.635995,14.166 135.824003,14.4739969 135.152,15.09 C134.479997,15.7060031 134.046001,16.5739944 133.85,17.694 L141.284,17.694 C141.087999,16.6299947 140.682003,15.7760032 140.066,15.132 C139.449997,14.4879968 138.624005,14.166 137.588,14.166 Z" id="advance"></path>
        </g>
    </g>
</svg>
